assets/icons/24px/stroke/cursor-pointer-24px.svg

<svg width="24" height="24" viewBox="0 0 24 24" fill="none" xmlns="http://www.w3.org/2000/svg">
<path fill-rule="evenodd" clip-rule="evenodd" d="M5.30379 6.60001C5.60346 7.63974 6.23427 9.0649 7.13765 11.0975L10.4044 18.4478L11.9385 14.6824C11.9563 14.6385 11.974 14.595 11.9916 14.5517C12.2507 13.9127 12.4808 13.3455 12.9131 12.9131C13.3455 12.4808 13.9127 12.2507 14.5517 11.9916C14.595 11.974 14.6385 11.9563 14.6824 11.9385L18.4478 10.4044L11.0975 7.13765C9.0649 6.23427 7.63974 5.60347 6.6 5.30379C5.50673 4.98868 5.28954 5.17532 5.23243 5.23243C5.17532 5.28955 4.98868 5.50673 5.30379 6.60001ZM3.38202 7.15391C3.05001 6.00202 2.90405 4.73239 3.81822 3.81822C4.73238 2.90405 6.00201 3.05002 7.1539 3.38202C8.34311 3.72478 9.89527 4.41466 11.8304 5.27474L19.26 8.57681C19.2793 8.58537 19.2985 8.59392 19.3178 8.60246C19.7256 8.7836 20.1256 8.96125 20.4155 9.14287C20.6903 9.31505 21.2352 9.71442 21.2237 10.4479C21.2122 11.1815 20.6551 11.5636 20.375 11.7271C20.0795 11.8995 19.6742 12.0645 19.2608 12.2328C19.2414 12.2407 19.2219 12.2487 19.2024 12.2566L15.437 13.7906C14.5908 14.1354 14.4369 14.2178 14.3273 14.3274C14.2178 14.4369 14.1354 14.5908 13.7906 15.437L12.2566 19.2024C12.2487 19.2219 12.2407 19.2414 12.2328 19.2608C12.0645 19.6742 11.8995 20.0795 11.7271 20.375C11.5636 20.6551 11.1815 21.2122 10.4479 21.2237C9.71442 21.2352 9.31505 20.6903 9.14286 20.4155C8.96125 20.1256 8.7836 19.7256 8.60245 19.3178C8.59391 19.2985 8.58536 19.2793 8.57681 19.26L5.27474 11.8304C4.41466 9.89528 3.72477 8.34311 3.38202 7.15391Z" fill="white"/>
</svg>

<svg width="24" height="24" fill="none" xmlns="http://www.w3.org/2000/svg"><path fill-rule="evenodd" clip-rule="evenodd" d="M5.304 6.6c.3 1.04.93 2.465 1.834 4.498l3.266 7.35 1.534-3.766.054-.13c.259-.64.489-1.207.921-1.639.432-.432 1-.662 1.639-.921l.13-.054 3.766-1.534-7.35-3.266C9.065 6.234 7.64 5.603 6.6 5.304c-1.093-.315-1.31-.129-1.368-.072-.057.058-.243.275.072 1.368zm-1.922.554c-.332-1.152-.478-2.422.436-3.336.914-.914 2.184-.768 3.336-.436 1.19.343 2.741 1.033 4.676 1.893l7.43 3.302.058.025c.408.182.808.36 1.098.54.274.173.82.572.808 1.306-.012.733-.569 1.116-.849 1.28-.296.171-.7.337-1.114.505l-.059.024-3.765 1.534c-.846.344-1 .427-1.11.536-.11.11-.192.264-.536 1.11l-1.534 3.765-.024.059c-.168.413-.334.819-.506 1.114-.163.28-.546.837-1.28.849-.733.011-1.132-.534-1.304-.808-.182-.29-.36-.69-.54-1.098l-.026-.058-3.302-7.43c-.86-1.935-1.55-3.487-1.893-4.676z" fill="#fff"/></svg>
